svg/filled/miner.svg

<svg width="24" height="24" viewBox="0 0 24 24" fill="none" xmlns="http://www.w3.org/2000/svg">
<path d="M5.6417 18.3696C5.15834 17.8871 5.15833 17.113 5.64169 16.6304C7.26992 15.0051 9.51761 14 12 14C14.4825 14 16.7301 15.005 18.3583 16.6304C18.8417 17.1129 18.8417 17.8871 18.3584 18.3696C16.7301 19.9949 14.4824 21 12 21C9.51759 21 7.26993 19.995 5.6417 18.3696Z" fill="black"/>
<path fill-rule="evenodd" clip-rule="evenodd" d="M8.50003 7.5H15.5V8H16C16 10.6372 14.3188 13 12 13C9.68123 13 8.00003 10.6372 8.00003 8H8.50003V7.5ZM9.02273 8.5C9.21266 10.5678 10.5658 12 12 12C13.4343 12 14.7874 10.5678 14.9773 8.5H9.02273Z" fill="black"/>
<path fill-rule="evenodd" clip-rule="evenodd" d="M12 3C14.4853 3 16.5 5.23858 16.5 8H7.50003C7.50003 5.23858 9.51475 3 12 3ZM12 7.5C12.8285 7.5 13.5 6.82843 13.5 6C13.5 5.17157 12.8285 4.5 12 4.5C11.1716 4.5 10.5 5.17157 10.5 6C10.5 6.82843 11.1716 7.5 12 7.5Z" fill="black"/>
<path fill-rule="evenodd" clip-rule="evenodd" d="M6.50003 8.5C6.50003 8.22386 6.72389 8 7.00003 8H17C17.2762 8 17.5 8.22386 17.5 8.5C17.5 8.77614 17.2762 9 17 9H7.00003C6.72389 9 6.50003 8.77614 6.50003 8.5Z" fill="black"/>
</svg>

<svg xmlns="http://www.w3.org/2000/svg" viewBox="0 0 24 24" fill="currentColor">
  <path d="M5.642 18.37a1.224 1.224 0 010-1.74A8.972 8.972 0 0112 14a8.971 8.971 0 016.358 2.63 1.224 1.224 0 010 1.74A8.972 8.972 0 0112 21a8.972 8.972 0 01-6.358-2.63z"/>
  <path fill-rule="evenodd" d="M8.5 7.5h7V8h.5c0 2.637-1.681 5-4 5s-4-2.363-4-5h.5v-.5zm.523 1C9.213 10.568 10.566 12 12 12s2.787-1.432 2.977-3.5H9.023z" clip-rule="evenodd"/>
  <path fill-rule="evenodd" d="M12 3c2.485 0 4.5 2.239 4.5 5h-9c0-2.761 2.015-5 4.5-5zm0 4.5a1.5 1.5 0 100-3 1.5 1.5 0 000 3zM6.5 8.5A.5.5 0 017 8h10a.5.5 0 110 1H7a.5.5 0 01-.5-.5z" clip-rule="evenodd"/>
</svg>
